images/collx-bg.svg

<svg fill="none" height="500" viewBox="0 0 907 500" width="907" xmlns="http://www.w3.org/2000/svg"><path d="m745.569-159.123c-29.091 52.47-93.06 108.7931-170.98 137.5309-77.921 28.73768-194.514 53.646-267.662 86.702-110.269 49.8631-165.404 102.4271-215.7854 180.0851-50.3819 77.658-115.1177 214.77-141.0848 296.805-89.2458-113.263-83.2668-297.282-53.6588-421.556 4.1585-17.459 9.8503-35.3027 26.1971-49.8287 13.4147-11.9187 33.0002-20.6716 52.1832-29.1916l556.9407-247.1867c45.591-20.241 100.572-41.552 154.538-31.426 51.876 9.707 79.185 51.481 52.394 80.161" fill="#0575db"/><path d="m907-284s-129.416 251.2249-465.708 277.80851c-336.291 26.58359-456.3585 151.46949-483.4871 183.38849-27.1287 31.919-125.3739 169.707-286.8049 172.845v-634.042z" fill="#0086ff"/></svg>

<svg width="907" height="500" viewBox="0 0 907 500" fill="none" xmlns="http://www.w3.org/2000/svg"><path d="M745.569 -159.123C716.478 -106.653 652.509 -50.3299 574.589 -21.5921C496.668 7.14558 380.075 32.0539 306.927 65.1099C196.658 114.973 141.523 167.537 91.1416 245.195C40.7597 322.853 -23.9761 459.965 -49.9432 542C-139.189 428.737 -133.21 244.718 -103.602 120.444C-99.4435 102.985 -93.7517 85.1413 -77.4049 70.6153C-63.9902 58.6966 -44.4047 49.9437 -25.2217 41.4237L531.719 -205.763C577.31 -226.004 632.291 -247.315 686.257 -237.189C738.133 -227.482 765.442 -185.708 738.651 -157.028" fill="#0575DB"/><path d="M907 -284C907 -284 777.584 -32.7751 441.292 -6.19149C105.001 20.3921 -15.0665 145.278 -42.1951 177.197C-69.3238 209.116 -167.569 346.904 -329 350.042V-284H907Z" fill="#0086FF"/></svg>
